X:1
T:College -- Hornpipe
R:hornpipe
B:Cole's 1000 Fiddle Tunes
M:2/4
L:1/16
K:Bb
vdc|B2B,2B,2 (FE)|DF B2B2 vdB|c2C2C2 (cB)|AFAc f2(ga)|
bagf gfed|edcB BAGF|GBAc Bdce|d2B2B2:|
|:vFE|DFBF DFBF|G2E2E2 (GF)|=EGcG EGBG|A2F2F2 ("4"ed)|
e2g2 gfed|edcB BAGF|GBAc Bdce|d2B2B2:|
